X:1
T:How pleasant is thy dwelling place (Ps84)
T:George Kirby
T:Source : The Whole Book of Psalms---London---Musical Antiquarian Siciety---1844. First publication : London---Th.Est(e)---1592. Editor : André Vierendeels (08/09/16).
T:How pleasant is thy dwelling place (Ps84)
T:©
T:©
C:George Kirby
Z:©
%%score [ 1 2 3 4 ]
L:1/8
Q:1/4=140
M:4/4
K:F
V:1 treble nm="Soprano" snm="S"
V:2 treble nm="Alto" snm="A"
V:3 treble-8 nm="Tenor" snm="T"
V:4 bass nm="Bass" snm="B"
V:1
 A8 | A6 c2 | B4 A4 | G4 G4 | ^F8 || B8 | A4 G4 | G6 G2 | G8 || c8 | B6 A2 | d4 c4 | c4 A4 | A8 || %14
w: How|plea- sant|is thy|dwel- ling|place,|O|Lord, of|Hosts to|me,|the|ta- ber-|na- cles|of thy|grace,|
"^-natural" c8 | c4 A4 | B4 G4 | A8 |] %18
w: how|plea- sant|Lord they|be.|
V:2
 D8 | F6 C2 | D4 D4 | D4 D4 | D8 || D8 | D4 E4 | D4 D4 | E8 || F8 | F6 F2 | F4 F4 | E4 D4 | ^C8 || %14
w: How|plea- sant|is thy|dwel- ling|place,|O|Lord, of|Hosts to|me,|the|ta- ber-|na- cles|of thy|grace,|
 F8 | E4 D4 | D4 C4 | C8 |] %18
w: how|plea- sant|Lord they|be.|
V:3
 F8 | A6 A2 | G4 F4 | B4 B4 | A8 || G8 | A4 c4 | c4 =B4 | c8 || A8 | d6 c2 | B4 A4 | G4 F4 | E8 || %14
w: How|plea- sant|is thy|dwel- ling|place,|O|Lord, of|Hosts to|me,|the|ta- ber-|na- cles|of thy|grace,|
 A8 | G4 F4 | F4 E4 | F8 |] %18
w: how|plea- sant|Lord they|be.|
V:4
 D,8 | D,6 A,,2 | B,,4 D,4 | G,,4 G,,4 | D,8 || G,8 | F,4 E,4 | G,4 G,4 | C,8 || F,8 | B,,6 F,2 | %11
w: How|plea- sant|is thy|dwel- ling|place,|O|Lord, of|Hosts to|me,|the|ta- ber-|
 B,,4 F,,4 | C,4 D,4 | A,,8 || F,8 | C,4 D,4 | B,,4 C,4 | F,,8 |] %18
w: na- cles|of thy|grace,|how|plea- sant|Lord they|be.|

